app/dist/images/icons/fb.svg

<svg width="11" height="20" viewBox="0 0 11 20" fill="none" xmlns="http://www.w3.org/2000/svg">
<path d="M10.5696 0H8.03825C4.96375 0 2.97825 1.98843 2.97825 5.06678V7.03521H0.430375C0.1925 7.03521 0 7.22377 0 7.45661V10.8421C0 11.0749 0.1925 11.2621 0.430375 11.2621H2.97825V19.58C2.97825 19.8114 3.17075 20 3.40725 20H6.996C7.23525 20 7.42775 19.8114 7.42775 19.58V11.2606H10.5682C10.8061 11.2606 10.9986 11.0735 10.9986 10.8407L11 7.45661C10.9994 7.40097 10.9879 7.34604 10.9661 7.2952C10.9444 7.24435 10.9129 7.19866 10.8735 7.16092C10.7911 7.0809 10.6824 7.03647 10.5696 7.03664H7.42775V5.42247C7.42775 4.47111 7.66012 3.98829 8.93062 3.98829L10.5696 3.98257C10.8061 3.98257 10.9986 3.79544 10.9986 3.5626V0.41997C11 0.188558 10.8075 0 10.5696 0Z" fill="white"/>
</svg>

<svg width="11" height="20" fill="none" xmlns="http://www.w3.org/2000/svg"><path d="M10.57 0H8.038c-3.074 0-5.06 1.988-5.06 5.067v1.968H.43a.426.426 0 00-.43.422v3.385c0 .233.193.42.43.42h2.548v8.318c0 .231.193.42.43.42h3.588c.24 0 .432-.189.432-.42v-8.32h3.14c.238 0 .43-.187.43-.42L11 7.458a.421.421 0 00-.127-.296.435.435 0 00-.303-.124H7.428V5.422c0-.95.232-1.434 1.503-1.434l1.639-.005a.424.424 0 00.429-.42V.42a.423.423 0 00-.43-.42z" fill="#fff"/></svg>
